!!!OTL: Abtrumpfen zwischen Burschen und M&auml;dchen (93a), S. 239
!!!id: T0252E
**kern
*clefG2
*k[]
*G:
{4g
=1
4g
4d
4b
=2
4b
4g}
4r
=3
{4dd
8ee
8dd
8cc
8b
=4
4dd
4dd
8ee
8dd
=5
4dd
4dd}
=6
{8ee
8dd
=7
4cc
4a
4g
=8
4g
4g}
=9
{8ee
8dd
=10
4cc
4a
4g
=11
4g
4g}
=12
{8g
8g
=13
4.ee
8ee
4ee
=14
8ee
8dd
4dd}
=15
{8b
8dd
=16
4dd
4cc
8a
8cc
=17
4cc
4b}
==
*-
!!!minrhy: 8
!!!meters: 3/4 ]  ZZ[6
!!!cut1: Abtrumpfen zwischen Burschen und M&auml;dchen (93a), S. 239
!!!cut2: 2. Melodie
!!!reg: Luxemburg
!!!trd: Singendes Volk, Esch-Alzette 1937 posth.
!!!rhy1: X_  X_X_X_  X_X_0_
!!!rhy2: X_XXXX  X_X_XX  X_X_
!!!key: T0252E 08  G 3/4 ]  ZZ[6
!!!mod: SECHSTONSKALA DUR ?]  AMBITUS[9
!!!kad: 151153
!!!akz: 13_555_41_41_66_54_
!!!fot: 'a__b__c__c__d__e__
!!!for: 'a__b__av_av_c__d__
!!!fok: '^__V__\__\__/__^__
!! PHRAS[VORWIEGEND AUFTAKTIG]
!!!fkt: Liebeslieder
!!!bem1: Blascheid, fff Barbara Kaisen-Kolbach;
!!!bem2: (93b)- Boxhorn, mitgeteilt:
!!!bem3: hhh Heinrich Godefroid (Lehrer)
!! THILL, Mathias:
!! PR[29] 2K[0] 2G[4] 3K[4] 3G[4] 4A[6] 4Ü[0] 5A[4] 6K[0] 6G[4]
!! 7K[0] 7G[0] 8A[0] MEHR[0] SI[27] ABS[48] SR[4] SP[23]
!! ST[12] 2k[4] 2g[21] 3k[8] 3g[4] 4d[2] 4ü[0] 5d[4] 6k[0] 6g[0]
!! 7k[0] 7g[0] 8d[0] mehr[0] si[44] dm[-17] sr[25] sp[19]
!! 1F[55] 2F[43] 3F[0] 4F[0] LF[0] 2P[2] 3P[0] 4P[0] TRI[0] DF[3] AB[49]
!! TF[0] U3K[0] U3[0] U4[0] U4Ü[0] U5[6] U6K[0] U6[0] U7K[0] U7[0]
!! N1[20] N2K[0] N2[8] N3K[0] N3[18] N4[12] N4Ü[0] N5[20] N6K[0] N6[14]
!!!n7k: 0] N7[0] O1[0] O2K[0] O2[0] O3K[0] O3[0] HÖ[0
!!!RNB: symbol: &auml;      = a umlaut  (UTF-8: Å„)
